X:1
T:Title
%%score { ( 1 3 ) | ( 2 4 ) }
L:1/8
M:4/4
K:Eb
V:1 treble nm="Grand Piano"
V:3 treble 
V:2 bass 
V:4 bass 
V:1
 z4 z[Q:1/4=94] BGA | B6 z2 | G6 z2 | A6 z2 | B6 z2 |[M:5/8] B-B- B3 |[M:3/8] efe |[M:4/4] F6 z2 | %8
 z2 .F2 B2 D2 |[M:5/8] E-E- E3 |[M:3/8] GGG |[M:4/4] c6 z2 | G6 z2 | c6 z2 | B6 z2 | e6 z2 | %16
[M:9/8] .[Bd]6 z3 |[M:4/4] [EGB][EAc][EGB][CFA] [B,EG]2 [A,DF]2 | %18
[M:5/8] [G,B,E]-[G,B,E]- [G,B,E]3 |] %19
V:2
 z8 | z [E,E][E,E][E,E] .[E,E]2 z2 | z [E,B,][E,B,][E,B,] .[E,B,]2 z2 | %3
 z [B,,B,][B,,B,][B,,B,] .[B,,B,]2 z2 | z [E,G,][E,G,][E,G,] .[E,G,]2 z2 | %5
[M:5/8] z [E,E][E,E] [E,E][E,E] |[M:3/8] z3 |[M:4/4] z A,,A,,A,, A,,[K:treble]GAB | %8
 d2[K:bass] z2 z4 |[M:5/8] [E,G,B,]-[E,G,B,]- [E,G,B,]3 |[M:3/8] z3 | %11
[M:4/4] z [C,G,][C,G,][C,G,] .[C,C]2 z2 | z [E,B,][E,B,][E,B,] .[E,B,]2 z2 | %13
 z A,[A,E][A,E] .[A,E]2 z2 | z [E,E][E,E][E,E] .[E,E]2 z2 | z [E,B,][E,B,][E,B,] [E,B,]E,E,E, | %16
[M:9/8] A,A,A, A, A,2- A, A,2 |[M:4/4] B,B,B,A,, B,,2 B,,2 |[M:5/8] E,-E,- E,3 |] %19
V:3
 x8 | z GGG GBEF | z EEE EGFG | z FFF FFGA | z EEE EBGA |[M:5/8] z GG GG |[M:3/8] x3 | %7
[M:4/4] z [CE][CE][CE] .[CE]2 z2 | z [B,F]c-[Fc] DD z B, |[M:5/8] x5 |[M:3/8] x3 | %11
[M:4/4] z EEE EGFA | z EEE EGGG | z EAA Aedc | z GGG GBcB | z GGG G[EGB][B,EG][EGB] | %16
[M:9/8] E3- E- [EAc]2- [EAc] [EAc]2 |[M:4/4] x8 |[M:5/8] x5 |] %19
V:4
 x8 | x8 | x8 | x8 | x8 |[M:5/8] x5 |[M:3/8] x3 |[M:4/4] x5[K:treble] x3 | %8
 z[K:bass] B,,[B,,A,][B,,A,] [B,,F,][B,,F,][B,,A,B,][B,,A,] |[M:5/8] x5 |[M:3/8] x3 |[M:4/4] x8 | %12
 x8 | x8 | x8 | x8 |[M:9/8] x9 |[M:4/4] x8 |[M:5/8] x5 |] %19

